X:1
T:Lord Ronald
M:3/4
L:1/4
K:C
 G| G B B| B dd/2-B/2| A G G| G2 G| G g g| g d B| c d e| d2 d| d g g|\
 g d B/2B/2| c d e| d2 G/2A/2| B B B/2B/2| c dd/2-B/2| A G G| G2||\
